gama.ui.shared/icons_svg/light/navigator/files/file.shapesupport.svg

<svg height="16.751" viewBox="-662.872 -3501.737 16.75 16.751" width="16.75" xmlns="http://www.w3.org/2000/svg"><g fill="none"><path d="m-662.4969-3501.361h15.999997v15.999997h-15.999997z"/><path d="m-658.6573-3500.4814 4.96-.16 3.36-.16 3.19996 3.2-.16 11.68h-11.35996z" fill="#fff"/><path d="m-646.49774-3497.7386v10.3776c0 1.1046-.89546 2-2 2h-8.79996c-1.1046 0-2-.8954-2-2v-12c0-1.1046.8954-2 2-2h7.1776c.1062-.0067.2167.0287.3052.117l3.2 3.2c.0885.0886.1239.199.11716.3054zm-4-2.8224h-6.79996c-.6628 0-1.2.5373-1.2 1.2v12c0 .6627.5372 1.2 1.2 1.2h8.79996c.66274 0 1.2-.5373 1.2-1.2v-10h-2.8c-.22091 0-.4-.179-.4-.4zm.8.5657v1.8343h1.83434z" fill="#999"/><path d="m-651.01746-3491.838h-1.61274c-.1521 0-.2754.123-.2754.275v1.3376c0 .152-.1233.2754-.2753.2754h-.0787c-.1521 0-.27536-.1234-.27536-.2754v-1.3376c0-.152-.12324-.275-.27534-.275h-1.3374c-.1521 0-.2754-.1235-.2754-.2755v-.0787c0-.1521.1233-.2754.2754-.2754h1.3374c.1521 0 .27534-.1234.27534-.2754v-1.3373c0-.1521.12326-.2754.27536-.2754h.0787c.152 0 .2753.1233.2753.2754v1.3373c0 .152.1233.2754.2754.2754h1.3374c.1521 0 .27534.1233.27534.2754z" fill="#999"/><path d="m-651.01746-3491.838h-1.61274c-.1521 0-.2754.123-.2754.275v1.3376c0 .152-.1233.2754-.2753.2754h-.0787c-.1521 0-.27536-.1234-.27536-.2754v-1.3376c0-.152-.12324-.275-.27534-.275h-1.3374c-.1521 0-.2754-.1235-.2754-.2755v-.0787c0-.1521.1233-.2754.2754-.2754h1.3374c.1521 0 .27534-.1234.27534-.2754v-1.3373c0-.1521.12326-.2754.27536-.2754h.0787c.152 0 .2753.1233.2753.2754v1.3373c0 .152.1233.2754.2754.2754h1.3374c.1521 0 .27534.1233.27534.2754z" stroke="#999" stroke-linecap="round" stroke-linejoin="round" stroke-width=".5"/></g></svg>

<?xml version="1.0" encoding="UTF-8" standalone="no"?>
<!DOCTYPE svg PUBLIC "-//W3C//DTD SVG 1.1//EN" "http://www.w3.org/Graphics/SVG/1.1/DTD/svg11.dtd">
<svg xmlns="http://www.w3.org/2000/svg" version="1.1" xmlns:xl="http://www.w3.org/1999/xlink" xmlns:dc="http://purl.org/dc/elements/1.1/" viewBox="-662.8719 -3501.737 16.749997 16.7508" width="16.749997" height="16.7508">
  <defs/>
  <g id="SOURCES" stroke-opacity="1" stroke-dasharray="none" fill="none" fill-opacity="1" stroke="none">
    <title>SOURCES</title>
    <g id="SOURCES_Light">
      <title>Light</title>
      <g id="Graphic_8719">
        <rect x="-662.4969" y="-3501.361" width="15.999997" height="15.999997" stroke="gray" stroke-opacity="0" stroke-linecap="round" stroke-linejoin="round" stroke-width="0"/>
      </g>
      <g id="Graphic_6559">
        <path d="M -658.6573 -3500.4814 L -653.6973 -3500.6414 L -650.3373 -3500.8014 L -647.13734 -3497.6014 L -647.29734 -3485.9214 L -658.6573 -3485.9214 Z" fill="white"/>
      </g>
      <g id="Graphic_6558">
        <path d="M -646.49774 -3497.7386 L -646.49774 -3487.361 C -646.49774 -3486.2564 -647.3932 -3485.361 -648.49774 -3485.361 L -657.2977 -3485.361 C -658.4023 -3485.361 -659.2977 -3486.2564 -659.2977 -3487.361 L -659.2977 -3499.361 C -659.2977 -3500.4656 -658.4023 -3501.361 -657.2977 -3501.361 L -650.1201 -3501.361 C -650.0139 -3501.3677 -649.9034 -3501.3323 -649.8149 -3501.244 L -646.6149 -3498.044 C -646.5264 -3497.9554 -646.491 -3497.845 -646.49774 -3497.7386 Z M -650.49774 -3500.561 L -657.2977 -3500.561 C -657.9605 -3500.561 -658.4977 -3500.0237 -658.4977 -3499.361 L -658.4977 -3487.361 C -658.4977 -3486.6983 -657.9605 -3486.161 -657.2977 -3486.161 L -648.49774 -3486.161 C -647.835 -3486.161 -647.29774 -3486.6983 -647.29774 -3487.361 L -647.29774 -3497.361 L -650.09774 -3497.361 C -650.31865 -3497.361 -650.49774 -3497.54 -650.49774 -3497.761 Z M -649.69774 -3499.9953 L -649.69774 -3498.161 L -647.8634 -3498.161 Z" fill="#999"/>
      </g>
      <g id="Graphic_6557">
        <path d="M -651.01746 -3491.838 L -652.6302 -3491.838 C -652.7823 -3491.838 -652.9056 -3491.715 -652.9056 -3491.563 L -652.9056 -3490.2254 C -652.9056 -3490.0734 -653.0289 -3489.95 -653.1809 -3489.95 L -653.2596 -3489.95 C -653.4117 -3489.95 -653.53496 -3490.0734 -653.53496 -3490.2254 L -653.53496 -3491.563 C -653.53496 -3491.715 -653.6582 -3491.838 -653.8103 -3491.838 L -655.1477 -3491.838 C -655.2998 -3491.838 -655.4231 -3491.9615 -655.4231 -3492.1135 L -655.4231 -3492.1922 C -655.4231 -3492.3443 -655.2998 -3492.4676 -655.1477 -3492.4676 L -653.8103 -3492.4676 C -653.6582 -3492.4676 -653.53496 -3492.591 -653.53496 -3492.743 L -653.53496 -3494.0803 C -653.53496 -3494.2324 -653.4117 -3494.3557 -653.2596 -3494.3557 L -653.1809 -3494.3557 C -653.0289 -3494.3557 -652.9056 -3494.2324 -652.9056 -3494.0803 L -652.9056 -3492.743 C -652.9056 -3492.591 -652.7823 -3492.4676 -652.6302 -3492.4676 L -651.2928 -3492.4676 C -651.1407 -3492.4676 -651.01746 -3492.3443 -651.01746 -3492.1922 L -651.01746 -3491.838 Z" fill="#999"/>
        <path d="M -651.01746 -3491.838 L -652.6302 -3491.838 C -652.7823 -3491.838 -652.9056 -3491.715 -652.9056 -3491.563 L -652.9056 -3490.2254 C -652.9056 -3490.0734 -653.0289 -3489.95 -653.1809 -3489.95 L -653.2596 -3489.95 C -653.4117 -3489.95 -653.53496 -3490.0734 -653.53496 -3490.2254 L -653.53496 -3491.563 C -653.53496 -3491.715 -653.6582 -3491.838 -653.8103 -3491.838 L -655.1477 -3491.838 C -655.2998 -3491.838 -655.4231 -3491.9615 -655.4231 -3492.1135 L -655.4231 -3492.1922 C -655.4231 -3492.3443 -655.2998 -3492.4676 -655.1477 -3492.4676 L -653.8103 -3492.4676 C -653.6582 -3492.4676 -653.53496 -3492.591 -653.53496 -3492.743 L -653.53496 -3494.0803 C -653.53496 -3494.2324 -653.4117 -3494.3557 -653.2596 -3494.3557 L -653.1809 -3494.3557 C -653.0289 -3494.3557 -652.9056 -3494.2324 -652.9056 -3494.0803 L -652.9056 -3492.743 C -652.9056 -3492.591 -652.7823 -3492.4676 -652.6302 -3492.4676 L -651.2928 -3492.4676 C -651.1407 -3492.4676 -651.01746 -3492.3443 -651.01746 -3492.1922 L -651.01746 -3491.838 Z" stroke="#999" stroke-linecap="round" stroke-linejoin="round" stroke-width=".5"/>
      </g>
    </g>
  </g>
</svg>
